X: 18098
T: Humours Of Ballyloughlin, The
R: jig
M: 6/8
K: Dmixolydian
G|ABA AGE|GED EGD|c2c cAd|dcA GED|
ABA AGE|G3 cGE|DED DFA|DED D2:|
|:B|c2c cAB|cAG ABc|ded ded|dcA DFA|
c2 A dcB|cAG FGE|DED DFA|DED D2:|
|:e|f2d ged|f2 d ged|B/c/de ged|B/c/de ged|
[1 f2 d ged|f2d ged|cde gag|edc d2:|
[2 f2 a ged|f/g/af ged|cde gag|edc d2 c||
|:A2 D ABG|FAF GED|E3 EFD|EFD EFG|
ABA dAG|FAF GEA|DED DFA|1 DED D2d:|2 DED D3||

